X:1
T:Stances tirées de l'Ode triomphale
T:Stances
T:Augusta Holmès
T:Augusta Holmès
T:tirées de l'Ode triomphale
T:IMSLP #589020
C:Augusta Holmès
Z:Augusta Holmès
%%score 1 { ( 2 4 ) | ( 3 5 6 ) }
L:1/8
M:4/4
K:B
V:1 treble nm="Hautbois"
V:2 treble nm="Piano"
V:4 treble 
V:3 bass 
V:5 bass 
V:6 bass 
V:1
 z8 | z8 | z8 | z4 z2 !fermata!z!ff! B ||"^très largement" (f8 | F4) !^!F3 !^!F | B4- B2 z B | d8 | %8
w: |||Ô|peu-|ple me voi-|\- ci!  _ Du|haut|
 d4 d3 d | d8 | d4 d3 d | d4 d3 d | d4 d3 d | !^!d4 (3(!^!B2 !^!=G2) !^!B2 | d4- d2 z !^!d | %15
w: de l'Em- py-|ré-|e Où je|règle à ja-|mais tes des-|\- tins glo- * ri-|eux,   _ Je|
 !^!e4 B2 G3/2 B/ | d4- d z d3/2 d/ |!ff! g4- (ge) B G | D8 | D4- D2!f! B3/2 G/ | %20
w: viens à ton ap-|pel,   _ et, de|flamme _ _ en- tou-|ré-|\- e   _ J'ap- pa-|
 !^!d4- d2!f! B3/2 G/ | !^!d4- d2!ff![Q:1/4=110]"^allarg." B3/2 d/ |[Q:1/4=105] f4 F3 F | %23
w: rais,   _ j'ap- pa-|rais,   _ j'ap- pa-|rais à tes|
"^a tempo"[Q:1/4=120] B8 | z8 | z8 | z8 | z8 | z8 | z8 | z4 z z/!f! d/ B3/2 c/ | %31
w: yeux!|||||||Ve- nez à|
 d2- d z z z/!f! d/ B3/2 c/ | d8 | %33
w: moi! * Ve- nez à|moi!|
!ff!"^très largement"[Q:1/4=115] !tenuto!f2 !tenuto!d !tenuto!B !tenuto!F !tenuto!D !tenuto!B,3/2 !tenuto!D/ | %34
w: Vous qui souf- frez pour la jus-|
 !tenuto!C4 !tenuto!B,4 |[Q:1/4=120] D4 D2 (3D D D | D3 D B4- | B2 B2 G3 B | D4- D2!f! z !^!D | %39
w: \- ti- ce!|Pau- vres, des- hé- ri-|tés, mar- tyrs,  |_ sui- vez ma|loi!   _ Il|
"^cresc." !^!G3 !^!D !^!G !^!B !^!d3/2 !^!B/ |!ff! !^!e4 B2 G3/2 B/ | (d4 D2)!f! !^!B3/2 !^!G/ | %42
w: faut que le clai- ron ter-|ri- ble re- ten-|tis- se... La jus-|
 !^!d4 d2!f! !^!B3/2 !^!G/ | !^!d4 d2!f! !^!B3/2"^rall. allarg." d/ | %44
w: ti- ce, la jus-|\- ti- ce, la jus-|
[Q:1/4=115] (f4[Q:1/4=110] F2) z !^!F |[Q:1/4=120] !^!B8- | B2 z2 z4 | z8 | z8 | z8 | z8 | z8 | %52
w: ti- ce, c'est|moi!  |_||||||
"^à pleine voix" z4"^Solo" z2!f! D3/2 D/ | E2 F3/2 F/ D2 D3/2 D/ | E2 F3/2 F/ D2 D z/!f! D/ | %55
w: Ac- cou-|rez à ma voix des con-|fins de la ter- re Mor-|
 !^!B4-"^sans presser" B !^!B/ !^!B/ !^!B !^!A/ !^!B/ | !^!F4- F2 (D2 | %57
w: \- tels   _ af- fa- més d'é- qui-|té!   _ J'é-|
 E3/2 E/ F3/2 F/"^cresc." D2) (F B, |!<(! G2 A F!<)! B2 F) D | %59
w: lè- ve sur vos fronts l'o- li-|\- vier sa- lu- tai- re, Sym-|
!<(! E G A c!<)!!f! d2"^allarg."[Q:1/4=112] (3!^!B !^!c !^!d ||[M:2/4][Q:1/4=108] c3 B || %61
w: bo- le de con- corde et de fra-|ter- ni-|
[M:4/4]"^a tempo"[Q:1/4=120] B4- B2 z2 | z8 |!f! B3/2 B/ B6 | B4 B2 B3/2 B/ | B4- B2!f! !^!B2 | %66
w: \- té!   _||À la sour-|ce de vé- ri-|té   _ Que|
 !^!B3 !^!B"^sans presser" !^!B !^!B !^!B3/2 !^!B/ |!f! !^!=d4- d2 (3!^!d !^!B !^!d | (f8 | %69
w: l'hom- me dé- li- vré du|mal   _ se dé- sal-|tè-|
 F4-) F z F3/2 F/ | B, D/ F/ B2- B z!f! F3/2 F/ | D F/ B/ d2- d2!ff!"^allarg." !^!B3/2 !^!d/ | %72
w: re!   _ Car la|nuit est vain- cue,   _ et le|mon- de s'é- claire   _ Au so-|
[Q:1/4=110] !^!f4- f2 !^!B2 |[Q:1/4=105] !^!c4 !^!c3 !^!d | d4- d2"^FIN" z2 |] %75
w: leil * de|la li- ber-|té! *|
V:2
 [Bdfb]2- [Bdfb]-[Bdfb]/>[B,^DB]/ !^![B,DB]-[B,DB]/>[B,DB]/ !^![B,DB]-[B,DB]/>[B,DB]/ | %1
!fff! !^![B,^DB]4 !^![B,DB]4 | !^![B,^DB]4 !^![B,DB]4 | [B,^DB]2 z2 !fermata!z4 || %4
"^Même mouvement" z8 | z8 |!p! !///-!B,4 D4 | !///-!B,4 D4 | !///-!B,4 D4 | !///-!B,4 D4 | %10
 !///-!B,4 D4 | !///-!B,4 D4 | !///-!B,4 D4 | !///-!B,4 D4 |!<(! !///-!D4 ^^F4!<)! | %15
!f!!>(! !///-!E4 G4!>)! |!p! z2 z D/D/ D2 D2 | !///-!E4 G4 | %18
 !///-![D^^F] A, !///-![DF]"_cresc." A, !///-![FA] D !///-![Ad] F | %19
 !///-![d^^f] A !///-![fa] d!f! [fad'] z [B,DB]2 | %20
 [B,DB]2- [B,DB]3/2[B,B]/4[B,B]/4 [B,DB] z [B,DB]2 | %21
 [B,DB]2- [B,DB]3/2[B,B]/4[B,B]/4 [B,DB] z [B,DB]2 | [B,DB]2 z2 [A,EA]2 z2 | %23
!f! [B,DB]2-"_a tempo" [B,DB]3/2[B,DB]/4[B,DB]/4 [B,DB]2- [B,DB]3/2[B,DB]/4[B,DB]/4 | %24
"_dim." [B,DB]2- [B,DB]3/2[B,DB]/4[B,DB]/4 [B,DB]2- [B,DB]3/2[B,DB]/4[B,DB]/4 | %25
"_Effet d'orgue"!p! ([FBd]2 [FBd]2!<(! [FBd]2 [FBd]!f![FBd]!<)! | %26
!>(! [GBe]3 [FBd])!>)! ([FBd]2!p! [FAc])[FAd] |!<(! [DGB]2 [EGc]2 [FBd]2 [FBd]2!<)! | %28
!f! [Fc]6- [Fc][^^Fd] |!p! [^^Fd]4 x4 | %30
 !///-![Ad] ^^F !///-![d^^f] A!f! [dfa] z!mf!!<(! [DGB]>[^FAc] | %31
 [FBd]>!<)!!f![FBf] [FBf]2- [FBf] z!mf! [DGB]>[FAc] |!<(! [FBd]>!<)!!f![FBf] [FBf]2- [FBf] z z2 | %33
!f! [FBf]4- [FBf] z ([B,DG]2 | [CEB]2 [CEA]2 [B,DB]4) |!p! !///-!B,4 D4 | %36
 !///-!A,2 D2 !///-!B,2 D2 | !///-!B,3 E3 !///-!G, B, | z2 z D/D/ D2 D2 |"_cresc." D2- D z z4 | %40
!f!!>(! !///-!G,4 B,4!>)! | z z/ [Dd]/4[Dd]/4 [Dd]3/2[Dd]/4[Dd]/4 [Dd]2!f! [B,DB]2 | %42
 [B,DB]2- [B,DB]3/2[B,B]/4[B,B]/4 [B,DB] z [B,DB]2 | %43
 [B,DB]2- [B,DB]3/2[B,B]/4[B,B]/4 [B,DB] z"_allarg." !^![B,DB]2 | [B,DB]2 z2 [A,EA]2 z2 | %45
!mf! [B,DB]2-"_cresc." [B,DB]3/2[DBd]/4[DBd]/4 [DBd]2- [DBd]3/2[Dd]/4[Dd]/4 | %46
 [DBd]2- [DBd]3/2[DBd]/4[DBd]/4 [DBd]2- [DBd]3/2[DBd]/4[DBd]/4 |!f! ([FBd]2 [FBd]2 [FBd]4 | %48
!mf!!<(! [FBd][FBd][GBe]>!f!!>(![FBd]!<)! [FBd]2 [FAc]2-)!>)! | %49
!mf! [FAc]([FAd][DGB][EGc] [FBd]2 [FBf]2) | ([F-Bf-]4 [FAf]3) [FBf] | %51
!p! [FBf] z !///-![B,D] F, !///-![DF]"_cresc." B, !///-![FB] D | %52
 !///-![Bd] F !///-![df] B!f! !///-![fb]"_sub" d!ppp! !///-![dfb] B | %53
 !///-!b g !///-!c' f !///-!b2 f2 | !///-!b g !///-!c' f !///-!b2 f2 | %55
"_poco cresc."!8va(! !///-!d'2 b2 !///-!=f'2 b2 | !///-![a^f']2 f2 !///-![af'] f !///-![bf'] f | %57
!ppp! !///-![be'] g !///-![ac'] f !///-![bd'] f"_cresc." !//-![bd']/f/ !//-![bf']/f/ | %58
 !///-![bc'e'] g !///-![ac'e'] f !///-![bd'] f !//-![bd']/f/ !//-![bf']/f/ | %59
 !///-![bc'e'] g !///-![ac'e'] f!f! !///-![ad'] ^^f"_allarg." !///-![bd'] g || %60
[M:2/4] !///-![be'] g !///-![af'] f || %61
[M:4/4]!ff!"_a tempo" !///-![bd'f']2 f2 !///-![bd'] f"_dim." !///-![fb] d!8va)! | %62
 !///-![df] B !///-![Bd] F !///-![FB] D !///-![DF] B, |!pp! !///-!B,4 D4 | !///-!B,4 D4 | %65
 !///-!B,4 =D4 |!<(! !///-!B,4 E4!<)! |!>(! !///-!=A,2 =D2 !///-!B,2 D2!>)! | %68
!p!"_cresc." [A,CF]4 [CFA]2 [FAc]2 | [Acf]2 [cfa]2 [fac']2 [c'f']2 | %70
!mf!!8va(! [bd'f'b']!8va)! z z!f! [FB]/[FB]/ [FB]2- [FB] z | %71
 z2 z!f! [FBd]/[FBd]/ [FBd]2"^allarg." !^![GB]2 | !^![FBd]4- [FBd]2 !^![DGB]2 | %73
 !^![EGc]4 !^![FAc]3 [FBd] | [DFBd]4- [DFBd]2 z2 |] %75
V:3
!8vb(! !///-!B,,,,4 B,,,4 | !///-!B,,,,4 B,,,4 | !///-!B,,,,4 B,,,4 | %3
 [B,,,,B,,,]2!8vb)! z2 !fermata!z4 || z8 | z8 | !///-!B,,,4 B,,4 | !///-!B,,,4 B,,4 | %8
 !///-!B,,,4 B,,4 | !///-!G,,,4 G,,4 | !///-!G,,,4 G,,4 | !///-!=G,,,4 =G,,4 | !///-!F,,,4 F,,4 | %13
 !///-!E,,,4 E,,4 | !^![D,,,D,,]2 !^![^^F,,,^^F,,]2 !^![A,,,A,,]2 !^![D,,D,]2 | !///-!E,,4 E,4 | %16
 !///-!D,,4!p! D,4 | !///-!E,,4 E,4 | !///-!D,,4 D,4 | !///-!D,,2 D,2 D,, z!p! !^![G,,G,]2 | %20
 !^![=G,,=G,]4 !^![F,,F,]2 !^![^G,,^G,]2 | !^![=G,,=G,]4"^allarg." !^![F,,F,]2 !^![^G,,^G,]2 | %22
 [F,,F,]2 z2 [F,,F,]2 z2 | !///-!B,,,4 B,,4 | !///-!B,,,4 B,,4 | %25
 ([F,B,D]2 [F,B,D]2 [F,B,D]2 [F,B,D][F,B,D] | [G,B,E]3 [F,B,D]) ([F,B,D]2 [F,A,C])[F,A,D] | %27
 [D,G,B,]2 [E,G,C]2 [F,B,D]2 [F,B,D]2 | [F,E]6- F,D, | !///-!D,,2 D,2 !///-!D,,2 D,2 | %30
 !///-!D,,2 D,2 D,, z [G,,G,]>[^F,,^F,] | z z/ [F,B,D]/ [F,B,D]2- [F,B,D] z [G,,G,]>[F,,F,] | %32
 z z/ [F,B,D]/ [F,B,D]2- [F,B,D] z z2 | [F,B,D]4- [F,B,D] z ((G,2 | C,2 F,2)) !///-!B,,,2 B,,2 | %35
 !///-!G,,,4 G,,4 | !///-!^^F,,,2 ^^F,,2 !///-!G,,,2 G,,2 | %37
 !///-!G,,,3 G,,3 !//-!E,,/E,/ !//-!B,,,/B,,/ | !///-!D,,4 D,4 | !///-!G,,,4 G,,4 | %40
 !///-!E,,,4 E,,4 |!8vb(! !///-!D,,,2 D,,2 D,,,!8vb)! z !^![G,,G,]2 | %42
 !^![=G,,=G,]4 [F,,F,] z !^![G,,G,]2 | [=G,,=G,]4 [F,,F,] z !^![^G,,^G,]2 | %44
 [F,,F,]2 z2 [F,,F,]2 z2 | !///-!B,,,4 B,,4 | !///-!B,,,4 B,,4 | ([F,B,D]2 [F,B,D]2 [F,B,D]4 | %48
 [F,B,D][F,B,D][G,B,E]>[F,B,D] [F,B,D]2 [F,A,C]2-) | %49
 [F,A,C]([F,A,D][D,G,B,][E,G,C] [F,B,D]2 [F,B,D]2) | [F,CE]4- [F,CE]3 [B,,F,D] | %51
!ped! !///-!B,,,4 B,,4!ped-up! | !///-!B,,,2 B,,2!f!!>(! !///-!B,,, B,,!>)! B,,, z | %53
[K:treble] !///-![GB] e !///-![FA] c !///-!B2 d2 | !///-![GB] e !///-![FA] c !///-!B2 d2 | %55
 !///-!G2 B2 !///-!=G2 B2 |!p! F3 F/F/ F2 (D2 | E2 F2 D2) FB, | G2 (AF) (B2 F)(D | %59
 EGAc) d2 (3!^!B!^!c!^!d ||[M:2/4] (!^!c3 !^!B) ||[M:4/4][K:bass] !///-!B,,,4 B,,4 | %62
 !///-!B,,,4 B,,4 | !///-!B,,,4 B,,4 | !///-!G,,,4 G,,4 | !///-!=G,,,4 =G,,4 | !///-!=G,,,4 =G,,4 | %67
 !///-!F,,,2 F,,2 !///-!=G,,,2 =G,,2 | !///-!F,,,4 F,,4 | !///-!F,,,4 F,,4 | %70
!8vb(! [B,,,,B,,,]!8vb)! z z [F,B,D]/[F,B,D]/ [F,B,D]2- [F,B,D] z | %71
 z2 z [F,B,D]/[F,B,D]/ [F,B,D]2 [G,B,D]2 | [F,B,D]4- [F,B,D]2 [G,B,]2 | %73
 [E,G,C]4 [F,A,C]3 [B,,F,B,] | [B,,F,B,]4- [B,,F,B,]2 z2 |] %75
V:4
 x8 | x8 | x8 | x8 || x8 | x8 | x8 | x8 | x8 | x8 | x8 | x8 | x8 | x8 | x8 | x8 | %16
 !//-!D/^^F/ !///-!D F z z2 z2 | x8 | x8 | x8 | x8 | x8 | x8 | x8 | x8 | x8 | x8 | x8 | x8 | %29
 z2"_cresc." !///-![A,D] ^^F, !///-![D^^F] A, !///-![FA] D | x8 | x8 | x8 | x8 | x8 | x8 | x8 | %37
 x8 | !///-!^^F, A, !//-!F,/A,/ z z2 z2 | !///-!G,4 B,4 | x8 | [^^F,A,] z z2 x4 | x8 | x8 | x8 | %45
 x8 | x8 | x8 | x8 | x8 | x8 | x8 | x8 | x8 | x8 |!8va(! x8 | x8 | x8 | x8 | x8 ||[M:2/4] x4 || %61
[M:4/4] x8!8va)! | x8 | x8 | x8 | x8 | x8 | x8 | F3 F/F/ F3 F/F/ | f3 f/f/ f2 [fa]2 | %70
!8va(! x!8va)! x7 | x8 | x8 | x8 | x8 |] %75
V:5
!8vb(! x8 | x8 | x8 | x2!8vb)! x6 || x8 | x8 | x8 | x8 | x8 | x8 | x8 | x8 | x8 | x8 | x8 | x8 | %16
 x8 | x8 | x8 | x8 | x8 | x8 | x8 | x8 | x8 | x8 | x8 | x8 | B,4 A,3 x | x8 | x8 | %31
 [B,,,B,,]2- [B,,,B,,] z x4 | [B,,,B,,]2- [B,,,B,,] z z4 | x8 | x8 | x8 | x8 | x8 | x8 | x8 | x8 | %41
!8vb(! x5!8vb)! x3 | x8 | x8 | x8 | x8 | x8 | x8 | x8 | x8 | x8 | x8 | x8 |[K:treble] x8 | x8 | %55
 x8 | x8 | x8 | x8 | x8 ||[M:2/4] x4 ||[M:4/4][K:bass] x8 | x8 | x8 | x8 | x8 | x8 | x8 | x8 | x8 | %70
!8vb(! x!8vb)! x7 | x8 | x8 | x8 | x8 |] %75
V:6
!8vb(! x8 | x8 | x8 | x2!8vb)! x6 || x8 | x8 | x8 | x8 | x8 | x8 | x8 | x8 | x8 | x8 | x8 | x8 | %16
 x8 | x8 | x8 | x8 | x8 | x8 | x8 | x8 | x8 | x8 | x8 | x8 | x6 E[A,D] | x8 | x8 | x8 | x8 | x8 | %34
 x8 | x8 | x8 | x8 | x8 | x8 | x8 |!8vb(! x5!8vb)! x3 | x8 | x8 | x8 | x8 | x8 | x8 | x8 | x8 | %50
 x8 | x8 | x8 |[K:treble] x8 | x8 | x8 | x8 | x8 | x8 | x8 ||[M:2/4] x4 ||[M:4/4][K:bass] x8 | x8 | %63
 x8 | x8 | x8 | x8 | x8 | x8 | x8 |!8vb(! x!8vb)! x7 | x8 | x8 | x8 | x8 |] %75

